images/3235565.svg

<?xml version="1.0" encoding="UTF-8"?>
<svg xmlns="http://www.w3.org/2000/svg" xmlns:xlink="http://www.w3.org/1999/xlink" width="300pt" height="300pt" viewBox="0 0 300 300" version="1.1">
<defs>
<g>
<symbol overflow="visible" id="glyph0-0">
<path style="stroke:none;" d="M 0.546875 1.9375 L 0.546875 -7.75 L 6.046875 -7.75 L 6.046875 1.9375 Z M 1.171875 1.328125 L 5.4375 1.328125 L 5.4375 -7.140625 L 1.171875 -7.140625 Z M 1.171875 1.328125 "/>
</symbol>
<symbol overflow="visible" id="glyph0-1">
<path style="stroke:none;" d="M 4.328125 -7.28125 C 3.546875 -7.28125 2.921875 -6.984375 2.453125 -6.390625 C 1.992188 -5.804688 1.765625 -5.007812 1.765625 -4 C 1.765625 -2.988281 1.992188 -2.1875 2.453125 -1.59375 C 2.921875 -1.007812 3.546875 -0.71875 4.328125 -0.71875 C 5.117188 -0.71875 5.742188 -1.007812 6.203125 -1.59375 C 6.660156 -2.1875 6.890625 -2.988281 6.890625 -4 C 6.890625 -5.007812 6.660156 -5.804688 6.203125 -6.390625 C 5.742188 -6.984375 5.117188 -7.28125 4.328125 -7.28125 Z M 4.328125 -8.171875 C 5.453125 -8.171875 6.351562 -7.789062 7.03125 -7.03125 C 7.707031 -6.28125 8.046875 -5.269531 8.046875 -4 C 8.046875 -2.738281 7.707031 -1.726562 7.03125 -0.96875 C 6.351562 -0.21875 5.453125 0.15625 4.328125 0.15625 C 3.203125 0.15625 2.300781 -0.21875 1.625 -0.96875 C 0.957031 -1.71875 0.625 -2.726562 0.625 -4 C 0.625 -5.269531 0.957031 -6.28125 1.625 -7.03125 C 2.300781 -7.789062 3.203125 -8.171875 4.328125 -8.171875 Z M 4.328125 -8.171875 "/>
</symbol>
<symbol overflow="visible" id="glyph0-2">
<path style="stroke:none;" d="M 1.078125 -8.015625 L 2.546875 -8.015625 L 6.09375 -1.3125 L 6.09375 -8.015625 L 7.15625 -8.015625 L 7.15625 0 L 5.6875 0 L 2.125 -6.703125 L 2.125 0 L 1.078125 0 Z M 1.078125 -8.015625 "/>
</symbol>
</g>
</defs>
<g id="surface37533">
<rect x="0" y="0" width="300" height="300" style="fill:rgb(100%,100%,100%);fill-opacity:1;stroke:none;"/>
<path style="fill:none;stroke-width:1.2;stroke-linecap:butt;stroke-linejoin:miter;stroke:rgb(0%,0%,0%);stroke-opacity:1;stroke-miterlimit:10;" d="M 167.855469 67.480469 L 155.488281 72.046875 "/>
<path style="fill:none;stroke-width:1.2;stroke-linecap:butt;stroke-linejoin:miter;stroke:rgb(100%,0%,0%);stroke-opacity:1;stroke-miterlimit:10;" d="M 155.488281 72.046875 L 143.117188 76.609375 "/>
<path style="fill:none;stroke-width:1.2;stroke-linecap:butt;stroke-linejoin:miter;stroke:rgb(100%,0%,0%);stroke-opacity:1;stroke-miterlimit:10;" d="M 143.117188 76.609375 L 140.886719 89.601562 "/>
<path style="fill:none;stroke-width:1.2;stroke-linecap:butt;stroke-linejoin:miter;stroke:rgb(0%,0%,0%);stroke-opacity:1;stroke-miterlimit:10;" d="M 140.886719 89.601562 L 138.65625 102.59375 "/>
<path style=" stroke:none;fill-rule:nonzero;fill:rgb(100%,100%,100%);fill-opacity:1;" d="M 139.117188 70.109375 L 148.117188 70.109375 L 148.117188 83.109375 L 139.117188 83.109375 Z M 139.117188 70.109375 "/>
<g style="fill:rgb(100%,0%,0%);fill-opacity:1;">
  <use xlink:href="#glyph0-1" x="139.117188" y="80.010742"/>
</g>
<path style="fill:none;stroke-width:1.2;stroke-linecap:butt;stroke-linejoin:miter;stroke:rgb(0%,0%,0%);stroke-opacity:1;stroke-miterlimit:10;" d="M 138.65625 102.59375 L 158.925781 119.453125 "/>
<path style="fill:none;stroke-width:1.2;stroke-linecap:butt;stroke-linejoin:miter;stroke:rgb(0%,0%,0%);stroke-opacity:1;stroke-miterlimit:10;" d="M 136.714844 109.050781 L 152.933594 122.535156 "/>
<path style="fill:none;stroke-width:1.2;stroke-linecap:butt;stroke-linejoin:miter;stroke:rgb(0%,0%,0%);stroke-opacity:1;stroke-miterlimit:10;" d="M 113.917969 111.71875 L 138.65625 102.59375 "/>
<path style="fill:none;stroke-width:1.2;stroke-linecap:butt;stroke-linejoin:miter;stroke:rgb(0%,0%,0%);stroke-opacity:1;stroke-miterlimit:10;" d="M 158.925781 119.453125 L 154.464844 145.4375 "/>
<path style="fill:none;stroke-width:1.2;stroke-linecap:butt;stroke-linejoin:miter;stroke:rgb(0%,0%,0%);stroke-opacity:1;stroke-miterlimit:10;" d="M 154.464844 145.4375 L 129.726562 154.5625 "/>
<path style="fill:none;stroke-width:1.2;stroke-linecap:butt;stroke-linejoin:miter;stroke:rgb(0%,0%,0%);stroke-opacity:1;stroke-miterlimit:10;" d="M 149.84375 140.527344 L 130.054688 147.832031 "/>
<path style="fill:none;stroke-width:1.2;stroke-linecap:butt;stroke-linejoin:miter;stroke:rgb(0%,0%,0%);stroke-opacity:1;stroke-miterlimit:10;" d="M 129.726562 154.5625 L 109.457031 137.707031 "/>
<path style="fill:none;stroke-width:1.2;stroke-linecap:butt;stroke-linejoin:miter;stroke:rgb(0%,0%,0%);stroke-opacity:1;stroke-miterlimit:10;" d="M 109.457031 137.707031 L 113.917969 111.71875 "/>
<path style="fill:none;stroke-width:1.2;stroke-linecap:butt;stroke-linejoin:miter;stroke:rgb(0%,0%,0%);stroke-opacity:1;stroke-miterlimit:10;" d="M 116.015625 136.15625 L 119.585938 115.371094 "/>
<path style="fill:none;stroke-width:1.2;stroke-linecap:butt;stroke-linejoin:miter;stroke:rgb(0%,0%,0%);stroke-opacity:1;stroke-miterlimit:10;" d="M 109.457031 137.707031 L 84.722656 146.832031 "/>
<path style="fill:none;stroke-width:1.2;stroke-linecap:butt;stroke-linejoin:miter;stroke:rgb(0%,0%,0%);stroke-opacity:1;stroke-miterlimit:10;" d="M 84.722656 146.832031 L 82.488281 159.824219 "/>
<path style="fill:none;stroke-width:1.2;stroke-linecap:butt;stroke-linejoin:miter;stroke:rgb(0%,0%,100%);stroke-opacity:1;stroke-miterlimit:10;" d="M 82.488281 159.824219 L 80.257812 172.816406 "/>
<path style="fill:none;stroke-width:1.2;stroke-linecap:butt;stroke-linejoin:miter;stroke:rgb(0%,0%,100%);stroke-opacity:1;stroke-miterlimit:10;" d="M 80.257812 172.816406 L 67.890625 177.378906 "/>
<path style="fill:none;stroke-width:1.2;stroke-linecap:butt;stroke-linejoin:miter;stroke:rgb(0%,0%,0%);stroke-opacity:1;stroke-miterlimit:10;" d="M 67.890625 177.378906 L 55.523438 181.945312 "/>
<path style="fill:none;stroke-width:1.2;stroke-linecap:butt;stroke-linejoin:miter;stroke:rgb(0%,0%,0%);stroke-opacity:1;stroke-miterlimit:10;" d="M 100.527344 189.675781 L 90.394531 181.246094 "/>
<path style="fill:none;stroke-width:1.2;stroke-linecap:butt;stroke-linejoin:miter;stroke:rgb(0%,0%,100%);stroke-opacity:1;stroke-miterlimit:10;" d="M 90.394531 181.246094 L 80.257812 172.816406 "/>
<path style=" stroke:none;fill-rule:nonzero;fill:rgb(100%,100%,100%);fill-opacity:1;" d="M 76.257812 166.316406 L 84.257812 166.316406 L 84.257812 179.316406 L 76.257812 179.316406 Z M 76.257812 166.316406 "/>
<g style="fill:rgb(0%,0%,100%);fill-opacity:1;">
  <use xlink:href="#glyph0-2" x="76.257812" y="176.217773"/>
</g>
<path style="fill:none;stroke-width:1.2;stroke-linecap:butt;stroke-linejoin:miter;stroke:rgb(0%,0%,0%);stroke-opacity:1;stroke-miterlimit:10;" d="M 57.503906 179.558594 L 47.371094 171.128906 "/>
<path style="fill:none;stroke-width:1.2;stroke-linecap:butt;stroke-linejoin:miter;stroke:rgb(100%,0%,0%);stroke-opacity:1;stroke-miterlimit:10;" d="M 47.371094 171.128906 L 37.234375 162.703125 "/>
<path style="fill:none;stroke-width:1.2;stroke-linecap:butt;stroke-linejoin:miter;stroke:rgb(0%,0%,0%);stroke-opacity:1;stroke-miterlimit:10;" d="M 53.539062 184.328125 L 43.402344 175.898438 "/>
<path style="fill:none;stroke-width:1.2;stroke-linecap:butt;stroke-linejoin:miter;stroke:rgb(100%,0%,0%);stroke-opacity:1;stroke-miterlimit:10;" d="M 43.402344 175.898438 L 33.265625 167.472656 "/>
<path style="fill:none;stroke-width:1.2;stroke-linecap:butt;stroke-linejoin:miter;stroke:rgb(0%,0%,0%);stroke-opacity:1;stroke-miterlimit:10;" d="M 55.523438 181.945312 L 51.058594 207.929688 "/>
<path style=" stroke:none;fill-rule:nonzero;fill:rgb(100%,100%,100%);fill-opacity:1;" d="M 26.25 158.585938 L 35.25 158.585938 L 35.25 171.585938 L 26.25 171.585938 Z M 26.25 158.585938 "/>
<g style="fill:rgb(100%,0%,0%);fill-opacity:1;">
  <use xlink:href="#glyph0-1" x="26.25" y="168.487305"/>
</g>
<path style="fill:none;stroke-width:1.2;stroke-linecap:butt;stroke-linejoin:miter;stroke:rgb(0%,0%,0%);stroke-opacity:1;stroke-miterlimit:10;" d="M 51.058594 207.929688 L 61.195312 216.359375 "/>
<path style="fill:none;stroke-width:1.2;stroke-linecap:butt;stroke-linejoin:miter;stroke:rgb(0%,0%,100%);stroke-opacity:1;stroke-miterlimit:10;" d="M 61.195312 216.359375 L 71.332031 224.789062 "/>
<path style="fill:none;stroke-width:1.2;stroke-linecap:butt;stroke-linejoin:miter;stroke:rgb(0%,0%,0%);stroke-opacity:1;stroke-miterlimit:10;" d="M 57.050781 204.84375 L 65.160156 211.589844 "/>
<path style="fill:none;stroke-width:1.2;stroke-linecap:butt;stroke-linejoin:miter;stroke:rgb(0%,0%,100%);stroke-opacity:1;stroke-miterlimit:10;" d="M 65.160156 211.589844 L 73.269531 218.332031 "/>
<path style="fill:none;stroke-width:1.2;stroke-linecap:butt;stroke-linejoin:miter;stroke:rgb(0%,0%,100%);stroke-opacity:1;stroke-miterlimit:10;" d="M 71.332031 224.789062 L 83.699219 220.222656 "/>
<path style="fill:none;stroke-width:1.2;stroke-linecap:butt;stroke-linejoin:miter;stroke:rgb(0%,0%,0%);stroke-opacity:1;stroke-miterlimit:10;" d="M 83.699219 220.222656 L 96.066406 215.660156 "/>
<path style=" stroke:none;fill-rule:nonzero;fill:rgb(100%,100%,100%);fill-opacity:1;" d="M 67.332031 218.289062 L 75.332031 218.289062 L 75.332031 231.289062 L 67.332031 231.289062 Z M 67.332031 218.289062 "/>
<g style="fill:rgb(0%,0%,100%);fill-opacity:1;">
  <use xlink:href="#glyph0-2" x="67.332031" y="228.19043"/>
</g>
<path style="fill:none;stroke-width:1.2;stroke-linecap:butt;stroke-linejoin:miter;stroke:rgb(0%,0%,0%);stroke-opacity:1;stroke-miterlimit:10;" d="M 96.066406 215.660156 L 116.335938 232.519531 "/>
<path style="fill:none;stroke-width:1.2;stroke-linecap:butt;stroke-linejoin:miter;stroke:rgb(0%,0%,0%);stroke-opacity:1;stroke-miterlimit:10;" d="M 102.058594 212.578125 L 118.277344 226.0625 "/>
<path style="fill:none;stroke-width:1.2;stroke-linecap:butt;stroke-linejoin:miter;stroke:rgb(0%,0%,0%);stroke-opacity:1;stroke-miterlimit:10;" d="M 100.527344 189.675781 L 96.066406 215.660156 "/>
<path style="fill:none;stroke-width:1.2;stroke-linecap:butt;stroke-linejoin:miter;stroke:rgb(0%,0%,0%);stroke-opacity:1;stroke-miterlimit:10;" d="M 116.335938 232.519531 L 128.707031 227.953125 "/>
<path style="fill:none;stroke-width:1.2;stroke-linecap:butt;stroke-linejoin:miter;stroke:rgb(0%,0%,100%);stroke-opacity:1;stroke-miterlimit:10;" d="M 128.707031 227.953125 L 141.074219 223.390625 "/>
<path style="fill:none;stroke-width:1.2;stroke-linecap:butt;stroke-linejoin:miter;stroke:rgb(0%,0%,100%);stroke-opacity:1;stroke-miterlimit:10;" d="M 141.074219 223.390625 L 143.304688 210.398438 "/>
<path style="fill:none;stroke-width:1.2;stroke-linecap:butt;stroke-linejoin:miter;stroke:rgb(0%,0%,0%);stroke-opacity:1;stroke-miterlimit:10;" d="M 143.304688 210.398438 L 145.535156 197.40625 "/>
<path style="fill:none;stroke-width:1.2;stroke-linecap:butt;stroke-linejoin:miter;stroke:rgb(0%,0%,100%);stroke-opacity:1;stroke-miterlimit:10;" d="M 135.40625 219.742188 L 137.191406 209.347656 "/>
<path style="fill:none;stroke-width:1.2;stroke-linecap:butt;stroke-linejoin:miter;stroke:rgb(0%,0%,0%);stroke-opacity:1;stroke-miterlimit:10;" d="M 137.191406 209.347656 L 138.976562 198.953125 "/>
<path style=" stroke:none;fill-rule:nonzero;fill:rgb(100%,100%,100%);fill-opacity:1;" d="M 137.074219 216.890625 L 145.074219 216.890625 L 145.074219 229.890625 L 137.074219 229.890625 Z M 137.074219 216.890625 "/>
<g style="fill:rgb(0%,0%,100%);fill-opacity:1;">
  <use xlink:href="#glyph0-2" x="137.074219" y="226.791992"/>
</g>
<path style="fill:none;stroke-width:1.2;stroke-linecap:butt;stroke-linejoin:miter;stroke:rgb(0%,0%,0%);stroke-opacity:1;stroke-miterlimit:10;" d="M 145.535156 197.40625 L 135.402344 188.976562 "/>
<path style="fill:none;stroke-width:1.2;stroke-linecap:butt;stroke-linejoin:miter;stroke:rgb(0%,0%,100%);stroke-opacity:1;stroke-miterlimit:10;" d="M 135.402344 188.976562 L 125.265625 180.546875 "/>
<path style="fill:none;stroke-width:1.2;stroke-linecap:butt;stroke-linejoin:miter;stroke:rgb(0%,0%,0%);stroke-opacity:1;stroke-miterlimit:10;" d="M 145.535156 197.40625 L 157.902344 192.84375 "/>
<path style="fill:none;stroke-width:1.2;stroke-linecap:butt;stroke-linejoin:miter;stroke:rgb(100%,0%,0%);stroke-opacity:1;stroke-miterlimit:10;" d="M 157.902344 192.84375 L 170.273438 188.28125 "/>
<path style="fill:none;stroke-width:1.2;stroke-linecap:butt;stroke-linejoin:miter;stroke:rgb(0%,0%,100%);stroke-opacity:1;stroke-miterlimit:10;" d="M 125.265625 180.546875 L 112.898438 185.113281 "/>
<path style="fill:none;stroke-width:1.2;stroke-linecap:butt;stroke-linejoin:miter;stroke:rgb(0%,0%,0%);stroke-opacity:1;stroke-miterlimit:10;" d="M 112.898438 185.113281 L 100.527344 189.675781 "/>
<path style="fill:none;stroke-width:1.2;stroke-linecap:butt;stroke-linejoin:miter;stroke:rgb(0%,0%,100%);stroke-opacity:1;stroke-miterlimit:10;" d="M 124.9375 187.28125 L 115.042969 190.933594 "/>
<path style="fill:none;stroke-width:1.2;stroke-linecap:butt;stroke-linejoin:miter;stroke:rgb(0%,0%,0%);stroke-opacity:1;stroke-miterlimit:10;" d="M 115.042969 190.933594 L 105.148438 194.582031 "/>
<path style=" stroke:none;fill-rule:nonzero;fill:rgb(100%,100%,100%);fill-opacity:1;" d="M 121.265625 174.046875 L 129.265625 174.046875 L 129.265625 187.046875 L 121.265625 187.046875 Z M 121.265625 174.046875 "/>
<g style="fill:rgb(0%,0%,100%);fill-opacity:1;">
  <use xlink:href="#glyph0-2" x="121.265625" y="183.948242"/>
</g>
<path style="fill:none;stroke-width:1.2;stroke-linecap:butt;stroke-linejoin:miter;stroke:rgb(100%,0%,0%);stroke-opacity:1;stroke-miterlimit:10;" d="M 170.273438 188.28125 L 180.40625 196.707031 "/>
<path style="fill:none;stroke-width:1.2;stroke-linecap:butt;stroke-linejoin:miter;stroke:rgb(0%,0%,0%);stroke-opacity:1;stroke-miterlimit:10;" d="M 180.40625 196.707031 L 190.542969 205.136719 "/>
<path style=" stroke:none;fill-rule:nonzero;fill:rgb(100%,100%,100%);fill-opacity:1;" d="M 166.273438 181.78125 L 175.273438 181.78125 L 175.273438 194.78125 L 166.273438 194.78125 Z M 166.273438 181.78125 "/>
<g style="fill:rgb(100%,0%,0%);fill-opacity:1;">
  <use xlink:href="#glyph0-1" x="166.273438" y="191.682617"/>
</g>
<path style="fill:none;stroke-width:1.2;stroke-linecap:butt;stroke-linejoin:miter;stroke:rgb(0%,0%,0%);stroke-opacity:1;stroke-miterlimit:10;" d="M 190.542969 205.136719 L 215.277344 196.011719 "/>
<path style="fill:none;stroke-width:1.2;stroke-linecap:butt;stroke-linejoin:miter;stroke:rgb(0%,0%,0%);stroke-opacity:1;stroke-miterlimit:10;" d="M 215.277344 196.011719 L 235.550781 212.867188 "/>
<path style="fill:none;stroke-width:1.2;stroke-linecap:butt;stroke-linejoin:miter;stroke:rgb(0%,0%,0%);stroke-opacity:1;stroke-miterlimit:10;" d="M 221.273438 192.925781 L 237.492188 206.414062 "/>
<path style="fill:none;stroke-width:1.2;stroke-linecap:butt;stroke-linejoin:miter;stroke:rgb(0%,0%,0%);stroke-opacity:1;stroke-miterlimit:10;" d="M 219.742188 170.027344 L 215.277344 196.011719 "/>
<path style="fill:none;stroke-width:1.2;stroke-linecap:butt;stroke-linejoin:miter;stroke:rgb(0%,0%,0%);stroke-opacity:1;stroke-miterlimit:10;" d="M 235.550781 212.867188 L 260.285156 203.742188 "/>
<path style="fill:none;stroke-width:1.2;stroke-linecap:butt;stroke-linejoin:miter;stroke:rgb(0%,0%,0%);stroke-opacity:1;stroke-miterlimit:10;" d="M 260.285156 203.742188 L 264.75 177.757812 "/>
<path style="fill:none;stroke-width:1.2;stroke-linecap:butt;stroke-linejoin:miter;stroke:rgb(0%,0%,0%);stroke-opacity:1;stroke-miterlimit:10;" d="M 254.617188 200.09375 L 258.191406 179.304688 "/>
<path style="fill:none;stroke-width:1.2;stroke-linecap:butt;stroke-linejoin:miter;stroke:rgb(0%,0%,0%);stroke-opacity:1;stroke-miterlimit:10;" d="M 264.75 177.757812 L 244.476562 160.898438 "/>
<path style="fill:none;stroke-width:1.2;stroke-linecap:butt;stroke-linejoin:miter;stroke:rgb(0%,0%,0%);stroke-opacity:1;stroke-miterlimit:10;" d="M 244.476562 160.898438 L 219.742188 170.027344 "/>
<path style="fill:none;stroke-width:1.2;stroke-linecap:butt;stroke-linejoin:miter;stroke:rgb(0%,0%,0%);stroke-opacity:1;stroke-miterlimit:10;" d="M 244.152344 167.632812 L 224.363281 174.933594 "/>
</g>
</svg>

<svg xmlns="http://www.w3.org/2000/svg" xmlns:xlink="http://www.w3.org/1999/xlink" width="300pt" height="300pt" viewBox="0 0 300 300"><defs><symbol overflow="visible"><path d="M.547 1.938V-7.75h5.5v9.688zm.625-.61h4.266v-8.47H1.171zm0 0"/></symbol><symbol overflow="visible" id="a"><path d="M4.328-7.28c-.78 0-1.406.296-1.875.89-.46.585-.687 1.382-.687 2.39 0 1.012.226 1.813.687 2.406.47.586 1.094.875 1.875.875.79 0 1.414-.288 1.875-.874.457-.593.688-1.394.688-2.406 0-1.008-.23-1.805-.687-2.39-.46-.594-1.086-.89-1.875-.89zm0-.892c1.125 0 2.024.383 2.703 1.14C7.708-6.28 8.048-5.27 8.048-4c0 1.262-.34 2.273-1.016 3.03C6.353-.22 5.454.157 4.33.157S2.3-.22 1.625-.97c-.668-.75-1-1.757-1-3.03 0-1.27.332-2.28 1-3.03.676-.76 1.578-1.142 2.703-1.142zm0 0"/></symbol><symbol overflow="visible" id="b"><path d="M1.078-8.016h1.47l3.546 6.704v-6.704h1.062V0H5.688L2.124-6.703V0H1.078zm0 0"/></symbol></defs><g><path fill="#fff" d="M0 0h300v300H0z"/><path d="M167.855 67.48l-12.367 4.567" stroke-width="1.2" stroke="#000" stroke-miterlimit="10" fill="none"/><path d="M155.488 72.047l-12.37 4.562M143.117 76.61l-2.23 12.992" stroke-width="1.2" stroke="#f00" stroke-miterlimit="10" fill="none"/><path d="M140.887 89.602l-2.23 12.992" stroke-width="1.2" stroke="#000" stroke-miterlimit="10" fill="none"/><path d="M139.117 70.11h9v13h-9zm0 0" fill="#fff"/><use xlink:href="#a" x="139.117" y="80.011" fill="#f00"/><path d="M138.656 102.594l20.27 16.86M136.715 109.05l16.22 13.485M113.918 111.72l24.738-9.126M158.926 119.453l-4.46 25.984M154.465 145.438l-24.738 9.125M149.844 140.527l-19.79 7.305M129.727 154.563l-20.27-16.856M109.457 137.707l4.46-25.988M116.016 136.156l3.57-20.785M109.457 137.707l-24.734 9.125M84.723 146.832l-2.235 12.992" stroke-width="1.2" stroke="#000" stroke-miterlimit="10" fill="none"/><path d="M82.488 159.824l-2.23 12.992M80.258 172.816L67.89 177.38" stroke-width="1.2" stroke="#00f" stroke-miterlimit="10" fill="none"/><path d="M67.89 177.38l-12.367 4.565M100.527 189.676l-10.132-8.43" stroke-width="1.2" stroke="#000" stroke-miterlimit="10" fill="none"/><path d="M90.395 181.246l-10.137-8.43" stroke-width="1.2" stroke="#00f" stroke-miterlimit="10" fill="none"/><path d="M76.258 166.316h8v13h-8zm0 0" fill="#fff"/><use xlink:href="#b" x="76.258" y="176.218" fill="#00f"/><path d="M57.504 179.56l-10.133-8.43" stroke-width="1.2" stroke="#000" stroke-miterlimit="10" fill="none"/><path d="M47.37 171.13l-10.136-8.427" stroke-width="1.2" stroke="#f00" stroke-miterlimit="10" fill="none"/><path d="M53.54 184.328l-10.138-8.43" stroke-width="1.2" stroke="#000" stroke-miterlimit="10" fill="none"/><path d="M43.402 175.898l-10.136-8.425" stroke-width="1.2" stroke="#f00" stroke-miterlimit="10" fill="none"/><path d="M55.523 181.945L51.06 207.93" stroke-width="1.2" stroke="#000" stroke-miterlimit="10" fill="none"/><path d="M26.25 158.586h9v13h-9zm0 0" fill="#fff"/><use xlink:href="#a" x="26.25" y="168.487" fill="#f00"/><path d="M51.06 207.93l10.135 8.43" stroke-width="1.2" stroke="#000" stroke-miterlimit="10" fill="none"/><path d="M61.195 216.36l10.137 8.43" stroke-width="1.2" stroke="#00f" stroke-miterlimit="10" fill="none"/><path d="M57.05 204.844l8.11 6.746" stroke-width="1.2" stroke="#000" stroke-miterlimit="10" fill="none"/><path d="M65.16 211.59l8.11 6.742M71.332 224.79l12.367-4.567" stroke-width="1.2" stroke="#00f" stroke-miterlimit="10" fill="none"/><path d="M83.7 220.223l12.366-4.563" stroke-width="1.2" stroke="#000" stroke-miterlimit="10" fill="none"/><path d="M67.332 218.29h8v13h-8zm0 0" fill="#fff"/><use xlink:href="#b" x="67.332" y="228.19" fill="#00f"/><path d="M96.066 215.66l20.27 16.86M102.06 212.578l16.217 13.484M100.527 189.676l-4.46 25.984M116.336 232.52l12.37-4.567" stroke-width="1.2" stroke="#000" stroke-miterlimit="10" fill="none"/><path d="M128.707 227.953l12.367-4.562M141.074 223.39l2.23-12.992" stroke-width="1.2" stroke="#00f" stroke-miterlimit="10" fill="none"/><path d="M143.305 210.398l2.23-12.992" stroke-width="1.2" stroke="#000" stroke-miterlimit="10" fill="none"/><path d="M135.406 219.742l1.785-10.394" stroke-width="1.2" stroke="#00f" stroke-miterlimit="10" fill="none"/><path d="M137.19 209.348l1.787-10.395" stroke-width="1.2" stroke="#000" stroke-miterlimit="10" fill="none"/><path d="M137.074 216.89h8v13h-8zm0 0" fill="#fff"/><use xlink:href="#b" x="137.074" y="226.792" fill="#00f"/><path d="M145.535 197.406l-10.133-8.43" stroke-width="1.2" stroke="#000" stroke-miterlimit="10" fill="none"/><path d="M135.402 188.977l-10.136-8.43" stroke-width="1.2" stroke="#00f" stroke-miterlimit="10" fill="none"/><path d="M145.535 197.406l12.367-4.562" stroke-width="1.2" stroke="#000" stroke-miterlimit="10" fill="none"/><path d="M157.902 192.844l12.37-4.563" stroke-width="1.2" stroke="#f00" stroke-miterlimit="10" fill="none"/><path d="M125.266 180.547l-12.368 4.566" stroke-width="1.2" stroke="#00f" stroke-miterlimit="10" fill="none"/><path d="M112.898 185.113l-12.37 4.563" stroke-width="1.2" stroke="#000" stroke-miterlimit="10" fill="none"/><path d="M124.938 187.28l-9.895 3.654" stroke-width="1.2" stroke="#00f" stroke-miterlimit="10" fill="none"/><path d="M115.043 190.934l-9.895 3.648" stroke-width="1.2" stroke="#000" stroke-miterlimit="10" fill="none"/><path d="M121.266 174.047h8v13h-8zm0 0" fill="#fff"/><use xlink:href="#b" x="121.266" y="183.948" fill="#00f"/><path d="M170.273 188.28l10.133 8.427" stroke-width="1.2" stroke="#f00" stroke-miterlimit="10" fill="none"/><path d="M180.406 196.707l10.137 8.43" stroke-width="1.2" stroke="#000" stroke-miterlimit="10" fill="none"/><path d="M166.273 181.78h9v13h-9zm0 0" fill="#fff"/><use xlink:href="#a" x="166.273" y="191.683" fill="#f00"/><path d="M190.543 205.137l24.734-9.125M215.277 196.012l20.274 16.855M221.273 192.926l16.22 13.488M219.742 170.027l-4.465 25.985M235.55 212.867l24.735-9.125M260.285 203.742l4.465-25.984M254.617 200.094l3.574-20.79M264.75 177.758l-20.273-16.86M244.477 160.898l-24.735 9.13M244.152 167.633l-19.79 7.3" stroke-width="1.2" stroke="#000" stroke-miterlimit="10" fill="none"/></g></svg>
